source/svgs/bowtie/uE9C1-resize-grip.svg

<svg xmlns="http://www.w3.org/2000/svg" viewBox="0 0 96 448" enable-background="new 0 0 96 448"><path d="M32 128h-32v-32h32v32zm0 32h-32v32h32v-32zm0 64h-32v32h32v-32zm0 64h-32v32h32v-32zm0 64h-32v32h32v-32zm0 64h-32v32h32v-32zm64-320h-32v32h32v-32zm0 64h-32v32h32v-32zm0 64h-32v32h32v-32zm0 64h-32v32h32v-32zm0 64h-32v32h32v-32zm0 64h-32v32h32v-32zm0-384h-32v32h32v-32zm-64 0h-32v32h32v-32z"/></svg>

<svg xmlns="http://www.w3.org/2000/svg" viewBox="0 0 96 448"><path d="M32 128H0V96h32v32zm0 32H0v32h32v-32zm0 64H0v32h32v-32zm0 64H0v32h32v-32zm0 64H0v32h32v-32zm0 64H0v32h32v-32zM96 96H64v32h32V96zm0 64H64v32h32v-32zm0 64H64v32h32v-32zm0 64H64v32h32v-32zm0 64H64v32h32v-32zm0 64H64v32h32v-32zm0-384H64v32h32V32zm-64 0H0v32h32V32z"/></svg>
